X: 1
T: Paddy O'Brien's
M: 4/4
L: 1/8
R: reel
K: Gmaj
|:ge | dB3 AcBA | GEDE GABd | gbaf gedB | cedB A2ge |
dB3 AcBA | GEDE GABd | gbaf gedB | AGAB G2 :|
|:Bc | dg3 agbg | agef gedB | dg3 agbg | agef g2ab |
agef gfge | d2BG AGEF | GABd gedB | AGAB G2 :|
